X:1
T:Title
%%score { ( 1 3 5 ) | ( 2 4 ) }
L:1/8
Q:1/4=92
M:4/4
K:Eb
V:1 treble nm="Grand Piano"
V:3 treble 
V:5 treble 
V:2 bass 
V:4 bass 
V:1
 [GB][Ge][Gd][Gc] [GB]GFE | A2 E2 G4 | [DF][_D=E][=DF][_EG] [FA][Ac][GB][FA] | z4 B4 | %4
w: W.~Stillman~Martin * * * * * * *||||
 [GB][Ge][Gd][Gc] [GB]GFE | A2 E2 G4 | F=EFB =ABcd | [B,DB]6 z2 |[M:6/8] e3 d3 | c3 z3 | G3 F3 | %11
w: |||||||
 E6[K:bass] | e3 d3 | c3 z3 | F3 c3 | d6 | e3 d3 | c3 z3 | E3 F3 | G6 | z3 c3 | %21
w: ||||||||||
[M:7/8] B2 z z z z2 |[M:3/4] G2 z2 B2 | [G,B,E]6 |] %24
w: |||
V:2
 [E,E][E,B,][E,C][E,D] [E,E][E,B,E][E,A,B,][E,G,B,] | [E,CE]2 [E,=B,]2 [E,_B,E]4 | %2
 [B,,B,][B,,B,][B,,B,][B,,B,] [B,,B,][B,,B,][B,,B,][B,,B,] | [E,B,E]2 [A,B,D]2 [G,B,E]2 [F,D]2 | %4
 [E,E][E,B,][E,C][E,D] [E,E][E,B,E][E,A,B,][E,G,B,] | [E,CE]2 [E,=B,]2 [E,_B,E]4 | %6
 [F,B,D][_G,B,_D][F,B,=D][F,DF] [F,CE][F,B,D][F,=A,E][F,A,F] | B,,6 z2 | %8
[M:6/8] E,[K:treble][G,B,EG][G,B,EG][K:bass] B,,[K:treble][G,B,EG][G,B,EG] | %9
 E,[G,B,E][K:treble][G,B,E] [G,EG][K:bass]B,G, | z B,B, z A,A, | z G,G, z G,G, | %12
 E,[K:treble][G,B,EG][G,B,EG][K:bass] B,,[K:treble][G,B,EG][G,B,EG] | %13
 E,[G,B,E][K:treble][G,B,E] [G,EG][K:bass]B,G, | z [=A,C][A,C] z[K:treble] [EF][EF] | %15
 B,CB,[K:bass] A,G,F, | E,[K:treble][G,B,EG][G,B,EG][K:bass] B,,[K:treble][G,B,EG][G,B,EG] | %17
 E,[G,B,E][K:treble][G,B,E] [G,EG]B,G, | A,[K:bass]A,A, A,A,A, | z =B,B, z B,[B,D] | %20
 z [CE][CE] z EE |[M:7/8] z EE [=B,,=B,]3 z |[M:3/4] B,,2 z2 [A,B,D][A,B,] | E,B,, G,, E,,3 |] %24
V:3
 x8 | x8 | x8 | G2 B2 z2 A2 | x8 | x8 | x8 | x8 |[M:6/8] z BB z BB | z GG BGE | z EE z DD | %11
 z[K:bass] B,B, z B,B, | z BB z BB | z GG BGE | z EE z =AA | z [DAB][DAB] [DAB]3 | z BB z BB | %17
 z GG BGF | z CC z CC | z DD z DG | FFF z _GG |[M:7/8] z GG [E_Ge]3 E |[M:3/4] z E BF z D | %23
 z2 z E,3 |] %24
V:4
 x8 | x8 | x8 | x8 | x8 | x8 | x8 | x8 |[M:6/8] x[K:treble] x2[K:bass] x[K:treble] x2 | %9
 x2[K:treble] x2[K:bass] x2 | .B,,3 .B,,3 | .[E,,E,]3 .E,,3 | %12
 x[K:treble] x2[K:bass] x[K:treble] x2 | x2[K:treble] x2[K:bass] x2 | %14
 .[F,,F,]3 .[F,,F,]3[K:treble] | x3[K:bass] x3 | x[K:treble] x2[K:bass] x[K:treble] x2 | %17
 x2[K:treble] x4 | z3[K:bass] .A,,3 | .[G,,G,]3 .G,,3 | .[A,,A,]3 .[=A,,=A,]3 | %21
[M:7/8] [B,,B,]3 z z z2 |[M:3/4] z2 z B,,3 | x6 |] %24
V:5
 x8 | x8 | x8 | x8 | x8 | x8 | x8 | x8 |[M:6/8] x6 | x6 | x6 | z3[K:bass] .E,3 | x6 | x6 | x6 | %15
 x6 | x6 | x6 | x6 | z3 .G,3 | x6 |[M:7/8] x7 |[M:3/4] x6 | x6 |] %24

